Sources/FrostedUI/Resources/Icons.xcassets/sealExclamation32.imageset/seal-exclamation-32.svg

<svg width="32" height="32" viewBox="0 0 32 32" fill="none" xmlns="http://www.w3.org/2000/svg" data-fui-icon="true">
  <g clip-path="url(#clip0_1057_1049)">
    <path
      d="M16 0C17.4844 0 18.811 0.674051 19.6914 1.73242C20.1513 2.28524 20.6988 2.78667 21.3633 3.06152C21.9456 3.30236 22.5816 3.35384 23.2119 3.31836L23.4814 3.29883C24.8545 3.1715 26.272 3.6333 27.3232 4.68457C28.373 5.73454 28.8334 7.14947 28.707 8.52051L28.6875 8.79004C28.6523 9.42178 28.7045 10.0592 28.9463 10.6426C29.2213 11.306 29.722 11.8534 30.2734 12.3135C31.3285 13.194 32 14.5184 32 16C32 17.4782 31.3312 18.8001 30.2803 19.6807L30.0762 19.8584C29.6055 20.2833 29.19 20.7769 28.9482 21.3604C28.6706 22.0305 28.6423 22.7718 28.708 23.4941C28.8327 24.8636 28.3716 26.2765 27.3232 27.3252C26.2732 28.3753 24.8578 28.837 23.4863 28.7109C22.766 28.6447 22.027 28.6731 21.3584 28.9492L21.1143 29.0625C20.5567 29.3503 20.0852 29.7947 19.6807 30.2783C18.8006 31.3304 17.4792 32 16 32C14.6071 32 13.3533 31.4066 12.4766 30.459L12.3057 30.2646C11.9066 29.7841 11.4408 29.3432 10.8887 29.0576L10.6475 28.9443C9.98568 28.6705 9.25309 28.6428 8.54004 28.71L8.28223 28.7266C6.99032 28.7786 5.68172 28.3126 4.69531 27.3262C3.7123 26.3431 3.24501 25.0397 3.29297 23.752L3.30957 23.4941C3.37496 22.7751 3.34555 22.0372 3.06934 21.3701C2.79305 20.7031 2.2886 20.1539 1.7334 19.6924C0.674376 18.8119 0 17.4849 0 16C3.87827e-05 14.6047 0.595478 13.3487 1.5459 12.4717L1.74023 12.3018C2.29371 11.8433 2.79588 11.2966 3.07129 10.6328C3.31214 10.0522 3.36487 9.41784 3.33008 8.78906L3.30957 8.52051C3.18339 7.14908 3.64542 5.73353 4.69531 4.68359C5.74859 3.63033 7.16943 3.16938 8.54492 3.2998C9.16615 3.35875 9.80201 3.34453 10.3926 3.15723L10.6426 3.06641C11.2189 2.82771 11.7062 2.41654 12.123 1.94922L12.2969 1.74609C13.1773 0.679938 14.5092 7.53423e-06 16 0ZM16 1.5C14.9757 1.50001 14.0609 1.96522 13.4531 2.70117C12.9233 3.34271 12.1947 4.04711 11.2168 4.45215C10.2362 4.85827 9.2276 4.87119 8.40332 4.79297C7.45371 4.70293 6.47942 5.02059 5.75586 5.74414C5.03453 6.46552 4.71661 7.43607 4.80371 8.38281C4.87983 9.21026 4.86559 10.2233 4.45703 11.208C4.04923 12.1909 3.34097 12.9239 2.69727 13.457C2.00943 14.0268 1.55949 14.8645 1.50586 15.8096L1.5 16C1.5 17.02 1.96112 17.9311 2.69238 18.5391C3.3369 19.0749 4.04675 19.8107 4.45508 20.7969C4.86403 21.7846 4.87816 22.8004 4.80273 23.6299C4.71673 24.5755 5.03526 25.5449 5.75586 26.2656C6.47849 26.9882 7.4516 27.3051 8.40039 27.2158C9.22668 27.1381 10.2376 27.1518 11.2207 27.5586C12.1987 27.9633 12.9285 28.6667 13.46 29.3066C14.0677 30.0384 14.9792 30.5 16 30.5C17.0157 30.5 17.9226 30.0426 18.5303 29.3164C19.0666 28.6753 19.8018 27.9687 20.7852 27.5625C21.7749 27.1537 22.7934 27.1414 23.624 27.2178C24.5707 27.3047 25.5412 26.9862 26.2627 26.2646L26.3926 26.127C27.0207 25.4235 27.2955 24.5171 27.2148 23.6309C27.1391 22.7987 27.1516 21.7779 27.5625 20.7861C27.9698 19.8031 28.6763 19.0674 29.3174 18.5303C30.0429 17.9222 30.5 17.0152 30.5 16C30.5 14.9821 30.0409 14.0727 29.3125 13.4648C28.672 12.9304 27.967 12.1975 27.5605 11.2168C27.1511 10.2288 27.1374 9.21261 27.2139 8.38281C27.2957 7.49529 27.0215 6.58711 26.3926 5.88281L26.2627 5.74512C25.5401 5.02252 24.5678 4.70418 23.6201 4.79199C22.7919 4.86884 21.7768 4.8563 20.79 4.44824C19.8069 4.04157 19.0727 3.33405 18.5381 2.69141C17.9303 1.96087 17.0198 1.5 16 1.5ZM16 20.75C16.6904 20.75 17.25 21.3096 17.25 22C17.25 22.6904 16.6904 23.25 16 23.25C15.3096 23.25 14.75 22.6904 14.75 22C14.75 21.3096 15.3096 20.75 16 20.75ZM16 8C16.4142 8 16.75 8.33579 16.75 8.75V17.25C16.75 17.6642 16.4142 18 16 18C15.5858 18 15.25 17.6642 15.25 17.25V8.75C15.25 8.33579 15.5858 8 16 8Z"
      fill="currentColor"
    />
  </g>
  <defs>
    <clipPath id="clip0_1057_1049"><path fill="currentColor" d="M0 0H32V32H0z" /></clipPath>
  </defs>
</svg>

<svg xmlns="http://www.w3.org/2000/svg" width="32" height="32" fill="none" data-fui-icon="true" viewBox="0 0 32 32"><g clip-path="url(#a)"><path fill="currentColor" d="M16 0a4.79 4.79 0 0 1 3.691 1.732c.46.553 1.008 1.055 1.672 1.33.583.24 1.219.292 1.849.256l.27-.02a4.8 4.8 0 0 1 3.841 1.387 4.79 4.79 0 0 1 1.384 3.836l-.02.269c-.035.632.017 1.27.26 1.853.274.663.775 1.21 1.326 1.67A4.79 4.79 0 0 1 32 16a4.79 4.79 0 0 1-1.72 3.68l-.204.178c-.47.425-.886.919-1.128 1.502-.277.67-.306 1.412-.24 2.134a4.79 4.79 0 0 1-1.385 3.831 4.79 4.79 0 0 1-3.837 1.386c-.72-.066-1.459-.038-2.128.238l-.244.113c-.557.288-1.029.733-1.433 1.216A4.79 4.79 0 0 1 16 32a4.79 4.79 0 0 1-3.523-1.541l-.171-.194c-.4-.48-.865-.922-1.417-1.207l-.241-.114c-.662-.273-1.395-.301-2.108-.234l-.258.017a4.78 4.78 0 0 1-3.587-1.4 4.79 4.79 0 0 1-1.402-3.575l.017-.258c.065-.719.036-1.457-.24-2.124-.277-.667-.781-1.216-1.337-1.678A4.79 4.79 0 0 1 0 16c0-1.395.595-2.651 1.546-3.528l.194-.17c.554-.459 1.056-1.005 1.331-1.67.241-.58.294-1.214.26-1.843l-.021-.268a4.8 4.8 0 0 1 1.385-3.837A4.79 4.79 0 0 1 8.545 3.3c.621.059 1.257.045 1.848-.143l.25-.09c.576-.24 1.063-.65 1.48-1.118l.174-.203A4.79 4.79 0 0 1 16 0m0 1.5c-1.024 0-1.94.465-2.547 1.201-.53.642-1.258 1.346-2.236 1.751-.98.406-1.99.42-2.814.341a3.29 3.29 0 0 0-2.647.951 3.29 3.29 0 0 0-.952 2.639c.076.827.062 1.84-.347 2.825-.408.983-1.116 1.716-1.76 2.249a3.3 3.3 0 0 0-1.191 2.353L1.5 16a3.29 3.29 0 0 0 1.192 2.54c.645.535 1.355 1.27 1.763 2.257.409.988.423 2.003.348 2.833a3.3 3.3 0 0 0 .953 2.636 3.29 3.29 0 0 0 2.644.95c.827-.078 1.838-.064 2.82.343.979.404 1.708 1.108 2.24 1.748A3.29 3.29 0 0 0 16 30.5a3.29 3.29 0 0 0 2.53-1.184c.537-.64 1.272-1.347 2.255-1.753.99-.41 2.008-.422 2.839-.345a3.3 3.3 0 0 0 2.639-.953l.13-.138c.628-.703.902-1.61.822-2.496-.076-.832-.063-1.853.348-2.845.407-.983 1.113-1.719 1.754-2.256A3.29 3.29 0 0 0 30.5 16a3.29 3.29 0 0 0-1.187-2.535c-.641-.535-1.346-1.267-1.752-2.248-.41-.988-.424-2.004-.347-2.834a3.29 3.29 0 0 0-.821-2.5l-.13-.138a3.3 3.3 0 0 0-2.643-.953c-.828.077-1.843.064-2.83-.344-.983-.406-1.717-1.114-2.252-1.757A3.29 3.29 0 0 0 16 1.5m0 19.25a1.25 1.25 0 1 1 0 2.5 1.25 1.25 0 0 1 0-2.5M16 8a.75.75 0 0 1 .75.75v8.5a.75.75 0 0 1-1.5 0v-8.5A.75.75 0 0 1 16 8"/></g><defs><clipPath id="a"><path fill="currentColor" d="M0 0h32v32H0z"/></clipPath></defs></svg>
